X:1
T: Mrs Reid of Adamton's Favourite
M: C|
B: James Campbell's Collection 1798
Z: source from Highland Music Trust, chords by Gary Whaley
L: 1/8
K:G
[|: "G" GBdg "D" (fa)fd | "G" B/c/dBG "D" FAFD | "G" GBdg "C"(e/f/g)"D"(f/g/a) | "G" bg"D"da "G"g/g/g g2 :|]
[|: "D" (f/g/a)dd (c/d/e)Ac |"G"(B/c/d)GB "D"AF D2 |"G"(f/g/a)dd "C"(e/f/g)"D"(f/g/a)|"G"bg"D"da "G"g/g/g g2|
|"D" (f/g/a)dd (c/d/e)Ac |"G"(B/c/d)GB "D"AFDF|"G"GFGD BG"C"ce |"G"dB"D"ca "G"g/g/g g2 :|]
